X: 1
T: TELEGRAPH -- HORNPIPE
C: Hall
B: Ryan's Mammoth Collection of Fiddle Tunes
R: hornpipe
M: 2/4
L: 1/16
Z: Contributed 20000425172742 by John Chambers jchambers:casc.com
K: G
vBA "Segno"\
| GDB,D GFGA | BABc d2((3udef) | gfed cBAG | FGAF DcBA |
| GDB,D GFGA | BABc d2((3udef) | gfed cBAG | F"4"edF G2 H[|]:|
|: vAG \
| FAfe d^cBA | GBgf ed^cB | ^ceba geBc | edfd ABAG |
| FAfe d^cBA | GBgf ed^cB | ^ceba geBc |1 d2f2d2 :|2 de^ce d=cBA "Segno"[|]|]
